X:1
T:The heer among the Corn
T:The Hare Amang the Corn
S:George Skene ms, Aberdeen, 1717, NLS Adv ms 5.2.21
Z:Matt Seattle
S:Matt Seattle <theborderpiper@googlemail.com> tradtunes 2013-1-28
M:6/8
L:1/8
K:G
d/c/BG B/c/dd | e/f/g/f/e/d/ "//"B>AG | c>dc Bcd | fAA A2c |
d/c/BG B/c/dd | e/f/g/f/e/d/ "//"B>AG | c>dc B>cd | BGG G3 ::
dB/c/d/B/ GB/c/d/B/ | dB/c/d/B/ GB/c/d/B/ | cA/B/c/A/ FA/B/c/A/ | cA/B/c/A/ FA/B/c/A/ |
dB/c/d/B/ ec/d/e/c/ | fd/e/f/d/ ge/f/g/e/ | af/g/a/f/ g>ef | gGG G3 :|
